TH1/varbins.svg

<svg xmlns="http://www.w3.org/2000/svg" viewBox="0 0 1200 800" preserveAspectRatio="none" width="1200" height="800">
 <path d="M0,0H1200V800H0Z" style="fill: white;"></path>
 <g>
  <g transform="translate(120,80)">
   <path d="M0,0H960V640H0Z" style="fill: white; stroke: black; stroke-width: 1;"></path>
   <svg x="0" y="0" overflow="hidden" width="960" height="640" viewBox="0 0 960 640">
    <g>
     <path d="M120,344h12M126,343v3M132,388h12M138,386v3M144,422h12M150,421v2M156,451h12M162,450v2M168,478h12M174,477v1M180,498h12M186,498v1M192,516h12M198,516v0M204,531h12M210,531v0M216,544h12M222,544v0M228,556h12M234,556v0M240,570h24M252,570v0M264,586h24M276,586v0M288,597h24M300,597v0M312,605h24M324,605v1M336,612h24M348,612v1M360,618h24M372,618v0M384,622h24M396,622v0M408,625h24M420,625v0M432,628h24M444,628v0M456,630h24M468,630v0M480,632h24M492,632v0M504,633h24M516,633v0M528,634h24M540,634v0M552,635h24M564,635v0M576,636h24M588,636v0" style="stroke: #ff0000; stroke-width: 1;"></path>
     <path d="M121,344a5,5,0,1,0,10,0a5,5,0,1,0,-10,0zM133,388a5,5,0,1,0,10,0a5,5,0,1,0,-10,0zM145,422a5,5,0,1,0,10,0a5,5,0,1,0,-10,0zM157,451a5,5,0,1,0,10,0a5,5,0,1,0,-10,0zM169,478a5,5,0,1,0,10,0a5,5,0,1,0,-10,0zM181,498a5,5,0,1,0,10,0a5,5,0,1,0,-10,0zM193,516a5,5,0,1,0,10,0a5,5,0,1,0,-10,0zM205,531a5,5,0,1,0,10,0a5,5,0,1,0,-10,0zM217,544a5,5,0,1,0,10,0a5,5,0,1,0,-10,0zM229,556a5,5,0,1,0,10,0a5,5,0,1,0,-10,0zM247,570a5,5,0,1,0,10,0a5,5,0,1,0,-10,0zM271,586a5,5,0,1,0,10,0a5,5,0,1,0,-10,0zM295,597a5,5,0,1,0,10,0a5,5,0,1,0,-10,0zM319,605a5,5,0,1,0,10,0a5,5,0,1,0,-10,0zM343,612a5,5,0,1,0,10,0a5,5,0,1,0,-10,0zM367,618a5,5,0,1,0,10,0a5,5,0,1,0,-10,0zM391,622a5,5,0,1,0,10,0a5,5,0,1,0,-10,0zM415,625a5,5,0,1,0,10,0a5,5,0,1,0,-10,0zM439,628a5,5,0,1,0,10,0a5,5,0,1,0,-10,0zM463,630a5,5,0,1,0,10,0a5,5,0,1,0,-10,0zM487,632a5,5,0,1,0,10,0a5,5,0,1,0,-10,0zM511,633a5,5,0,1,0,10,0a5,5,0,1,0,-10,0zM535,634a5,5,0,1,0,10,0a5,5,0,1,0,-10,0zM559,635a5,5,0,1,0,10,0a5,5,0,1,0,-10,0zM583,636a5,5,0,1,0,10,0a5,5,0,1,0,-10,0z" style="stroke: #ff0000; fill: #ff0000;"></path>
    </g>
   </svg>
   <g>
    <g transform="translate(0,640)">
     <path d="M0,0h960M24,-12v12m24,-12v12m24,-12v12m24,-12v12m24,-24v24m24,-12v12m24,-12v12m24,-12v12m24,-12v12m24,-24v24m24,-12v12m24,-12v12m24,-12v12m24,-12v12m24,-24v24m24,-12v12m24,-12v12m24,-12v12m24,-12v12m24,-24v24m24,-12v12m24,-12v12m24,-12v12m24,-12v12m24,-24v24m24,-12v12m24,-12v12m24,-12v12m24,-12v12m24,-24v24m24,-12v12m24,-12v12m24,-12v12m24,-12v12m24,-24v24m24,-12v12m24,-12v12m24,-12v12m24,-12v12m24,-24v24" style="stroke: black; stroke-width: 1;"></path>
     <g font-family="Arial" font-size="28" space="preserve" fill="black" text-anchor="middle">
      <text dy=".8em" transform="translate(120,6)">
       0.5
      </text>
      <text dy=".8em" transform="translate(240,6)">
       1
      </text>
      <text dy=".8em" transform="translate(360,6)">
       1.5
      </text>
      <text dy=".8em" transform="translate(480,6)">
       2
      </text>
      <text dy=".8em" transform="translate(600,6)">
       2.5
      </text>
      <text dy=".8em" transform="translate(720,6)">
       3
      </text>
      <text dy=".8em" transform="translate(840,6)">
       3.5
      </text>
      <text dy=".8em" transform="translate(960,6)">
       4
      </text>
     </g>
     <g font-family="Arial" font-size="28" space="preserve" transform="translate(960,45)">
      <g transform="translate(-129,9)">
       <text fill="black" font-size="28">
        p
       </text>
       <text fill="black" font-size="17" transform="translate(16,5)">
        T
       </text>
       <text fill="black" font-size="28" x="26">
        (GeV/
       </text>
       <text font-style="italic" fill="black" font-size="28" transform="translate(105)">
        c
       </text>
       <text fill="black" font-size="28" x="119">
        )
       </text>
      </g>
     </g>
    </g>
    <g>
     <path d="M0,0v640M18,627h-18m18,-13h-18m18,-12h-18m18,-13h-18m36,-13h-36m18,-13h-18m18,-13h-18m18,-12h-18m18,-13h-18m36,-13h-36m18,-13h-18m18,-13h-18m18,-12h-18m18,-13h-18m36,-13h-36m18,-13h-18m18,-13h-18m18,-12h-18m18,-13h-18m36,-13h-36m18,-13h-18m18,-13h-18m18,-12h-18m18,-13h-18m36,-13h-36m18,-13h-18m18,-13h-18m18,-12h-18m18,-13h-18m36,-13h-36m18,-13h-18m18,-13h-18m18,-12h-18m18,-13h-18m36,-13h-36m18,-13h-18m18,-13h-18m18,-12h-18m18,-13h-18m36,-13h-36m18,-13h-18m18,-13h-18m18,-12h-18m18,-13h-18m36,-13h-36m18,-13h-18m18,-13h-18m18,-12h-18m18,-13h-18m36,-13h-36" style="stroke: black; stroke-width: 1;"></path>
     <g font-family="Arial" font-size="28" space="preserve" fill="black" text-anchor="end">
      <text dy=".4em" transform="translate(-4,576)">
       0.5
      </text>
      <text dy=".4em" transform="translate(-4,512)">
       1
      </text>
      <text dy=".4em" transform="translate(-4,448)">
       1.5
      </text>
      <text dy=".4em" transform="translate(-4,384)">
       2
      </text>
      <text dy=".4em" transform="translate(-4,320)">
       2.5
      </text>
      <text dy=".4em" transform="translate(-4,256)">
       3
      </text>
      <text dy=".4em" transform="translate(-4,192)">
       3.5
      </text>
      <text dy=".4em" transform="translate(-4,128)">
       4
      </text>
      <text dy=".4em" transform="translate(-4,64)">
       4.5
      </text>
      <text dy=".4em" transform="translate(-4)">
       5
      </text>
     </g>
     <g font-family="Arial" font-size="28" space="preserve" transform="translate(-67,0)">
      <g transform=" rotate(270) translate(-269,9)">
       <g>
        <text fill="black" font-size="28" transform="translate(11,-17)">
         1
        </text>
        <path style="stroke: black; stroke-width: 2; fill: none;" d="M0,-10h34"></path>
        <g transform="translate(0,17)">
         <text fill="black" font-size="28">
          N
         </text>
         <text fill="black" font-size="17" transform="translate(20,5)">
          ev
         </text>
        </g>
       </g>
       <text fill="black" font-size="28" x="37">
        d
       </text>
       <text fill="black" font-size="17" transform="translate(53,-14)">
        2
       </text>
       <text fill="black" font-size="28" x="62">
        N/dp
       </text>
       <text fill="black" font-size="17" transform="translate(122,5)">
        t
       </text>
       <text fill="black" font-size="28" x="127">
        dy (Gev/c)
       </text>
       <text fill="black" font-size="17" transform="translate(255,-14)">
        -1
       </text>
      </g>
     </g>
    </g>
   </g>
  </g>
  <g transform="translate(120,4)" font-family="Arial" font-size="40" space="preserve">
   <text fill="black" text-anchor="middle" dy=".8em" transform="translate(480)">
    Entries vs momentum for pions
   </text>
  </g>
  <g transform="translate(936,52)" font-family="Arial" font-size="20" space="preserve" fill="black">
   <path d="M0,0H240V128H0Z" style="fill: white; stroke: black; stroke-width: 1;"></path>
   <text text-anchor="middle" dy=".4em" transform="translate(120,16)">
    SpectraPions
   </text>
   <text text-anchor="start" dy=".4em" transform="translate(12,48)">
    Entries
   </text>
   <text text-anchor="end" dy=".4em" transform="translate(228,48)">
    28717326
   </text>
   <text text-anchor="start" dy=".4em" transform="translate(12,80)">
    Mean
   </text>
   <text text-anchor="end" dy=".4em" transform="translate(228,80)">
    0.8144
   </text>
   <text text-anchor="start" dy=".4em" transform="translate(12,112)">
    Std Dev
   </text>
   <text text-anchor="end" dy=".4em" transform="translate(228,112)">
    0.3307
   </text>
   <path d="M0,32h240" style="stroke: black; stroke-width: 1;"></path>
  </g>
 </g>
</svg>

<svg xmlns="http://www.w3.org/2000/svg" viewBox="0 0 1200 800" preserveAspectRatio="none" width="1200" height="800">
 <path d="M0,0H1200V800H0Z" style="fill: white;"></path>
 <g>
  <g transform="translate(120,80)">
   <path d="M0,0H960V640H0Z" style="fill: white; stroke: black; stroke-width: 1;"></path>
   <svg x="0" y="0" overflow="hidden" width="960" height="640" viewBox="0 0 960 640">
    <g>
     <path d="M120,344h12M126,343v3M132,388h12M138,386v3M144,422h12M150,421v2M156,451h12M162,450v2M168,478h12M174,477v1M180,498h12M186,498v1M192,516h12M198,516v0M204,531h12M210,531v0M216,544h12M222,544v0M228,556h12M234,556v0M240,570h24M252,570v0M264,586h24M276,586v0M288,597h24M300,597v0M312,605h24M324,605v1M336,612h24M348,612v1M360,618h24M372,618v0M384,622h24M396,622v0M408,625h24M420,625v0M432,628h24M444,628v0M456,630h24M468,630v0M480,632h24M492,632v0M504,633h24M516,633v0M528,634h24M540,634v0M552,635h24M564,635v0M576,636h24M588,636v0" style="stroke: #ff0000; stroke-width: 1;"></path>
     <path d="M121,344a5,5,0,1,0,10,0a5,5,0,1,0,-10,0zM133,388a5,5,0,1,0,10,0a5,5,0,1,0,-10,0zM145,422a5,5,0,1,0,10,0a5,5,0,1,0,-10,0zM157,451a5,5,0,1,0,10,0a5,5,0,1,0,-10,0zM169,478a5,5,0,1,0,10,0a5,5,0,1,0,-10,0zM181,498a5,5,0,1,0,10,0a5,5,0,1,0,-10,0zM193,516a5,5,0,1,0,10,0a5,5,0,1,0,-10,0zM205,531a5,5,0,1,0,10,0a5,5,0,1,0,-10,0zM217,544a5,5,0,1,0,10,0a5,5,0,1,0,-10,0zM229,556a5,5,0,1,0,10,0a5,5,0,1,0,-10,0zM247,570a5,5,0,1,0,10,0a5,5,0,1,0,-10,0zM271,586a5,5,0,1,0,10,0a5,5,0,1,0,-10,0zM295,597a5,5,0,1,0,10,0a5,5,0,1,0,-10,0zM319,605a5,5,0,1,0,10,0a5,5,0,1,0,-10,0zM343,612a5,5,0,1,0,10,0a5,5,0,1,0,-10,0zM367,618a5,5,0,1,0,10,0a5,5,0,1,0,-10,0zM391,622a5,5,0,1,0,10,0a5,5,0,1,0,-10,0zM415,625a5,5,0,1,0,10,0a5,5,0,1,0,-10,0zM439,628a5,5,0,1,0,10,0a5,5,0,1,0,-10,0zM463,630a5,5,0,1,0,10,0a5,5,0,1,0,-10,0zM487,632a5,5,0,1,0,10,0a5,5,0,1,0,-10,0zM511,633a5,5,0,1,0,10,0a5,5,0,1,0,-10,0zM535,634a5,5,0,1,0,10,0a5,5,0,1,0,-10,0zM559,635a5,5,0,1,0,10,0a5,5,0,1,0,-10,0zM583,636a5,5,0,1,0,10,0a5,5,0,1,0,-10,0z" style="stroke: #ff0000; fill: #ff0000;"></path>
    </g>
   </svg>
   <g>
    <g transform="translate(0,640)">
     <path d="M0,0h960M24,-12V0M48,-12V0M72,-12V0M96,-12V0M120,-24V0M144,-12V0M168,-12V0M192,-12V0M216,-12V0M240,-24V0M264,-12V0M288,-12V0M312,-12V0M336,-12V0M360,-24V0M384,-12V0M408,-12V0M432,-12V0M456,-12V0M480,-24V0M504,-12V0M528,-12V0M552,-12V0M576,-12V0M600,-24V0M624,-12V0M648,-12V0M672,-12V0M696,-12V0M720,-24V0M744,-12V0M768,-12V0M792,-12V0M816,-12V0M840,-24V0M864,-12V0M888,-12V0M912,-12V0M936,-12V0M960,-24V0" style="stroke: black; stroke-width: 1;"></path>
     <g font-family="Arial" font-size="28" space="preserve" fill="black" text-anchor="middle">
      <text dy=".8em" transform="translate(120,6)">
       0.5
      </text>
      <text dy=".8em" transform="translate(240,6)">
       1
      </text>
      <text dy=".8em" transform="translate(360,6)">
       1.5
      </text>
      <text dy=".8em" transform="translate(480,6)">
       2
      </text>
      <text dy=".8em" transform="translate(600,6)">
       2.5
      </text>
      <text dy=".8em" transform="translate(720,6)">
       3
      </text>
      <text dy=".8em" transform="translate(840,6)">
       3.5
      </text>
      <text dy=".8em" transform="translate(960,6)">
       4
      </text>
     </g>
     <g font-family="Arial" font-size="28" space="preserve" transform="translate(960,45)">
      <g transform="translate(-129,9)">
       <text fill="black" font-size="28">
        p
       </text>
       <text fill="black" font-size="17" transform="translate(16,5)">
        T
       </text>
       <text fill="black" font-size="28" x="26">
        (GeV/
       </text>
       <text font-style="italic" fill="black" font-size="28" transform="translate(105)">
        c
       </text>
       <text fill="black" font-size="28" x="119">
        )
       </text>
      </g>
     </g>
    </g>
    <g>
     <path d="M0,0v640M18,627H0M18,614H0M18,602H0M18,589H0M36,576H0M18,563H0M18,550H0M18,538H0M18,525H0M36,512H0M18,499H0M18,486H0M18,474H0M18,461H0M36,448H0M18,435H0M18,422H0M18,410H0M18,397H0M36,384H0M18,371H0M18,358H0M18,346H0M18,333H0M36,320H0M18,307H0M18,294H0M18,282H0M18,269H0M36,256H0M18,243H0M18,230H0M18,218H0M18,205H0M36,192H0M18,179H0M18,166H0M18,154H0M18,141H0M36,128H0M18,115H0M18,102H0M18,90H0M18,77H0M36,64H0M18,51H0M18,38H0M18,26H0M18,13H0M36,0H0" style="stroke: black; stroke-width: 1;"></path>
     <g font-family="Arial" font-size="28" space="preserve" fill="black" text-anchor="end">
      <text dy=".4em" transform="translate(-4,576)">
       0.5
      </text>
      <text dy=".4em" transform="translate(-4,512)">
       1
      </text>
      <text dy=".4em" transform="translate(-4,448)">
       1.5
      </text>
      <text dy=".4em" transform="translate(-4,384)">
       2
      </text>
      <text dy=".4em" transform="translate(-4,320)">
       2.5
      </text>
      <text dy=".4em" transform="translate(-4,256)">
       3
      </text>
      <text dy=".4em" transform="translate(-4,192)">
       3.5
      </text>
      <text dy=".4em" transform="translate(-4,128)">
       4
      </text>
      <text dy=".4em" transform="translate(-4,64)">
       4.5
      </text>
      <text dy=".4em" transform="translate(-4)">
       5
      </text>
     </g>
     <g font-family="Arial" font-size="28" space="preserve" transform="translate(-67,0)">
      <g transform=" rotate(270) translate(-269,9)">
       <g>
        <text fill="black" font-size="28" transform="translate(11,-17)">
         1
        </text>
        <path style="stroke: black; stroke-width: 2; fill: none;" d="M0,-10h34"></path>
        <g transform="translate(0,17)">
         <text fill="black" font-size="28">
          N
         </text>
         <text fill="black" font-size="17" transform="translate(20,5)">
          ev
         </text>
        </g>
       </g>
       <text fill="black" font-size="28" x="37">
        d
       </text>
       <text fill="black" font-size="17" transform="translate(53,-14)">
        2
       </text>
       <text fill="black" font-size="28" x="62">
        N/dp
       </text>
       <text fill="black" font-size="17" transform="translate(122,5)">
        t
       </text>
       <text fill="black" font-size="28" x="127">
        dy (Gev/c)
       </text>
       <text fill="black" font-size="17" transform="translate(255,-14)">
        -1
       </text>
      </g>
     </g>
    </g>
   </g>
  </g>
  <g transform="translate(120,4)" font-family="Arial" font-size="40" space="preserve">
   <text fill="black" text-anchor="middle" dy=".8em" transform="translate(480)">
    Entries vs momentum for pions
   </text>
  </g>
  <g transform="translate(936,52)" font-family="Arial" font-size="20" space="preserve" fill="black">
   <path d="M0,0H240V128H0Z" style="fill: white; stroke: black; stroke-width: 1;"></path>
   <text text-anchor="middle" dy=".4em" transform="translate(120,16)">
    SpectraPions
   </text>
   <text text-anchor="start" dy=".4em" transform="translate(12,48)">
    Entries
   </text>
   <text text-anchor="end" dy=".4em" transform="translate(228,48)">
    28717326
   </text>
   <text text-anchor="start" dy=".4em" transform="translate(12,80)">
    Mean
   </text>
   <text text-anchor="end" dy=".4em" transform="translate(228,80)">
    0.8144
   </text>
   <text text-anchor="start" dy=".4em" transform="translate(12,112)">
    Std Dev
   </text>
   <text text-anchor="end" dy=".4em" transform="translate(228,112)">
    0.3307
   </text>
   <path d="M0,32h240" style="stroke: black; stroke-width: 1;"></path>
  </g>
 </g>
</svg>
